!!!!SEGMENT:33Niagarishinnai_c.krn
!!!OTL: 二上り新内
!!!OPR:Eiga Banso Kyokusyu,jidai-geki,zenpen
!!!YOY:1929
!!!ONB:Night,Iromachi
**kern
*clefG2
*k[]
*C:
*M4/4
*met(c)
=1
8r
(8ee
8ffL)
8ffJ
2ff
=2
2ee
2dd
=3
8eeL
8ffJ
8.eeL
(16ddJk
4b-X;)
[4a
=4
4a]
8r
8dd
4..ee
16dd
=5
2.b-X
[4a
=6
4a]
8r
8dd
2bn
=7
2a
2f
=8
4..a
(16f
[2e)
=9
4e]
8r
8a
2dd
=10
(4.b-X
8a
4.g)
(16gLL
16eJJ
=11
2d)
8r
8dd
[4ee
=12
8.ee]
(16dd
2b-X)
4a
=13
4a
8r
8dd
(4.bn
8a)
=14
2f
4..a
16f
=15
2.e
4r
=16
8fL
8aJ
2a
(8.aL
16fJk
=17
2e)
8gL
8aJ
4g
=18
2a
(8.bL
16aJk)
8gL
8aJ
=19
2a
8r
8dd
[4b
=20
8.b]
16a
2f
[4a
=21
8.a]
(16f
2e)
8r
8d
=22
4.f
8e
2d
=23
4r
(8dL
8eJ)
4.f
8e
=24
4d
4r
8ddL
8dd
8dd
8bJ
=25
4dd
4ee
4ff
4ee
=26
2dd
2dd
=27
4r
4ff
(4.aa
8ff)
=28
4ff
8aa
4bb
8ff
[4ff
=29
4.ff]
(16ffLL
16eeJJ
2dd)
=30
8eeL
8ffJ
2.ee
=31
(16aLL
16b
16a
16bJJ
16aLL
16b
16a
16bJJ
2b)
=32
8r
8d
8eL
8eJ
2e
=33
4g
2a
8r
8g
=34
4a
8aL
8gJ
8aL
8a
8b-X
8aJ
=35
8ddL
8dd
8b-X
8b-J
8aL
8a
8a
8aJ
=36
8fL
8f
8f
8dJ
4e
8fL
8eJ
=37
8aL
8a
8a
8dJ
4e
4r
==
*-
!!!ENC: Yukiko Yoden
!!!END: 2023/06/11
